X: 465
T: Jenny Dang The Weaver
N: page 189
N: hexatonic
M: 4/4
L: 1/8
R: reel
K: Dmaj
fe|:"D" dA A/2A/2A AFAB | "D" dA AA/2A/2 "D7" f2ef | "G" dB BB/2B/2 BABd | "Em" ABde "A7" faef:|
|:"D" defd "G" efge | "D" defd "A"e2dB | "D" defd "G" efge |[1 "A" aA AA/2A/2 "A7" f2ef:|[2  "A7"abag faef]|
